Catalina-light/actions/16/align-vertical-top-to-anchor.svg

<svg xmlns="http://www.w3.org/2000/svg" width="16" height="16" viewBox="0 0 16 16">
 <defs>
  <style id="current-color-scheme" type="text/css">
   .ColorScheme-Text { color:#5c616c; } .ColorScheme-Highlight { color:#5294e2; }
  </style>
 </defs>
 <path style="fill:currentColor" class="ColorScheme-Text" d="M 14.003906 1.0039062 L 14.003906 3.0039062 L 16.003906 3.0039062 L 16.003906 1.0039062 L 14.003906 1.0039062 z M 14.003906 3.0039062 L 0.00390625 3.0039062 L 0.00390625 5.0039062 L 1.0039062 5.0039062 L 1.0039062 15.003906 L 5.0039062 15.003906 L 5.0039062 5.0039062 L 9.0039062 5.0039062 L 9.0039062 15.003906 L 13.003906 15.003906 L 13.003906 5.0039062 L 14.003906 5.0039062 L 14.003906 3.0039062 z"/>
</svg>

<svg width="16" height="16" viewBox="0 0 16 16" xmlns="http://www.w3.org/2000/svg">
<defs>
<style id="current-color-scheme" type="text/css">.ColorScheme-Text { color:#5c616c; } .ColorScheme-Highlight { color:#5294e2; }</style>
</defs>
<path class="ColorScheme-Text" d="m14.004 1.0039v2h2v-2h-2zm0 2h-14v2h1v10h4v-10h4v10h4v-10h1v-2z" fill="#363636"/>
</svg>
